packages/dnb-ui-lib/assets/icons/document_pdf_medium.svg

<svg width="24" height="24" viewBox="0 0 24 24" fill="none" xmlns="http://www.w3.org/2000/svg">
<path d="M13 23H2.5C1.94772 23 1.5 22.5523 1.5 22V2C1.5 1.44772 1.94772 1 2.5 1H12.5362C12.8304 1 13.1096 1.12951 13.2996 1.35406L18.2634 7.22036C18.4162 7.40092 18.5 7.62979 18.5 7.86631V9" stroke="black" stroke-width="1.5" stroke-linecap="round" stroke-linejoin="round"/>
<path d="M9.29 12H6.5V19H8V16.3H9.29C10.8 16.3 11.68 15.51 11.68 14.15C11.68 12.79 10.8 12 9.29 12ZM9.05 15.1H8V13.2H9.05C9.81 13.2 10.16 13.5 10.16 14.15C10.16 14.8 9.81 15.1 9.05 15.1Z" fill="black"/>
<path d="M14.7316 12H12.6816V19H14.7316C16.9116 19 18.3016 17.61 18.3016 15.5C18.3016 13.39 16.9116 12 14.7316 12ZM14.5916 17.8H14.1816V13.2H14.5916C15.9616 13.2 16.7716 14.1 16.7716 15.5C16.7716 16.9 15.9616 17.8 14.5916 17.8Z" fill="black"/>
<path d="M23.9836 13.2V12H19.6836V19H21.1836V16.11H23.5836V14.91H21.1836V13.2H23.9836Z" fill="black"/>
</svg>

<svg width="24" height="24" viewBox="0 0 24 24" fill="none" xmlns="http://www.w3.org/2000/svg"><path d="M13 23H2.5a1 1 0 01-1-1V2a1 1 0 011-1h10.036a1 1 0 01.764.354l4.963 5.866a1 1 0 01.237.646V9" stroke="#000" stroke-width="1.5" stroke-linecap="round" stroke-linejoin="round"/><path d="M9.29 12H6.5v7H8v-2.7h1.29c1.51 0 2.39-.79 2.39-2.15 0-1.36-.88-2.15-2.39-2.15zm-.24 3.1H8v-1.9h1.05c.76 0 1.11.3 1.11.95 0 .65-.35.95-1.11.95zM14.732 12h-2.05v7h2.05c2.18 0 3.57-1.39 3.57-3.5 0-2.11-1.39-3.5-3.57-3.5zm-.14 5.8h-.41v-4.6h.41c1.37 0 2.18.9 2.18 2.3s-.81 2.3-2.18 2.3zM23.984 13.2V12h-4.3v7h1.5v-2.89h2.4v-1.2h-2.4V13.2h2.8z" fill="#000"/></svg>
